packages/foundations/assets/icons/functional/images/human/restricted_mobility_toilet_16.svg

<svg width="16" height="16" viewBox="0 0 16 16" fill="none" xmlns="http://www.w3.org/2000/svg">
<g clip-path="url(#clip0_185_1157)">
<path fill-rule="evenodd" clip-rule="evenodd" d="M3.2748 9.76963C3.6006 10.015 3.71039 10.5211 3.43265 10.8899C3.27724 11.0963 3.19229 11.346 3.19229 11.6106C3.19229 12.2734 3.72954 12.8106 4.39229 12.8106C4.61718 12.8106 4.87561 12.7538 5.12502 12.5611C5.47461 12.2909 5.97704 12.3553 6.24721 12.7049C6.51739 13.0544 6.45301 13.5569 6.10342 13.827C5.61707 14.2029 5.01941 14.4106 4.39229 14.4106C2.84589 14.4106 1.59229 13.157 1.59229 11.6106C1.59229 10.9957 1.79196 10.4089 2.15449 9.92749C2.42026 9.57454 2.92184 9.50386 3.2748 9.76963ZM5.55559 8.15764C5.76301 8.77447 5.9689 9.39214 6.17325 10.0106H7.06913C7.66651 10.0106 8.26399 10.3403 8.53976 10.9804C8.87185 11.7512 9.20258 12.5229 9.53196 13.2955C9.70601 13.7016 9.51789 14.1719 9.11178 14.3459C8.73469 14.5075 8.24243 14.3459 8.06133 13.9258C7.72914 13.155 7.39841 12.3833 7.06913 11.6106H6.17326C5.52761 11.6106 4.94987 11.2233 4.70073 10.6365L4.0377 8.6636C3.89798 8.24445 4.12451 7.79139 4.54367 7.65167C4.93288 7.52194 5.40358 7.70557 5.55559 8.15764ZM4.3924 5.02288C4.89137 5.02288 5.31358 5.44509 5.31358 5.94406C5.31358 6.46226 4.89137 6.86525 4.3924 6.86525C3.87426 6.86525 3.47121 6.46226 3.47121 5.94406C3.47121 5.44509 3.87426 5.02288 4.3924 5.02288ZM5.92217 2.14271C5.92217 1.8238 6.20746 1.62241 6.47599 1.62241C6.69419 1.62241 6.92067 1.75474 6.97953 2.0252L7.44516 4.16661L7.9697 2.00844C8.03125 1.75527 8.2718 1.62241 8.48995 1.62241C8.70816 1.62241 8.94892 1.75028 9.01025 2.00844L9.52335 4.17455L9.98367 2.0252C10.0452 1.73868 10.269 1.62241 10.4872 1.62241C10.7724 1.62241 11.041 1.8238 11.041 2.14271C11.041 2.19308 11.0376 2.24238 11.0242 2.29373L10.0508 6.03637C9.98114 6.30425 9.7487 6.42241 9.53055 6.42241C9.31234 6.42241 9.08565 6.3027 9.01025 6.03637L8.47319 4.13991L7.93614 6.03637C7.8595 6.30705 7.63404 6.42241 7.41584 6.42241C7.19768 6.42241 6.96444 6.28766 6.89559 6.01961L5.93893 2.29373C5.92577 2.24233 5.92217 2.19308 5.92217 2.14271ZM11.2022 4.01423C11.2022 1.82183 12.4977 1.58936 13.0624 1.58936C13.3946 1.58936 13.7434 1.65579 14.059 1.80525C14.2914 1.9049 14.3911 2.08758 14.3911 2.2703C14.3911 2.55263 14.1752 2.83501 13.8762 2.83501C13.8098 2.83501 13.7268 2.81837 13.6603 2.78521C13.4776 2.70214 13.2949 2.65234 13.1122 2.65234C12.8797 2.65234 12.2652 2.65234 12.2652 4.01423C12.2652 5.32637 12.8132 5.32637 13.1122 5.32637C13.3115 5.30979 13.5108 5.25994 13.6935 5.1935C13.7599 5.17692 13.8264 5.16028 13.8928 5.16028C14.1918 5.16028 14.4077 5.44266 14.4077 5.72499C14.4077 5.9243 14.3081 6.10703 14.059 6.20663C13.7434 6.30634 13.4112 6.37277 13.079 6.38936C12.3814 6.38936 11.2022 6.07376 11.2022 4.01423Z" fill="#1A1C1F"/>
</g>
<defs>
<clipPath id="clip0_185_1157">
<rect width="16" height="16" fill="white"/>
</clipPath>
</defs>
</svg>

<svg xmlns="http://www.w3.org/2000/svg" width="16" height="16" fill="none"><g clip-path="url(#a)"><path fill="#1A1C1F" fill-rule="evenodd" d="M3.275 9.77a.81.81 0 0 1 .158 1.12 1.2 1.2 0 0 0 1.692 1.671.8.8 0 1 1 .978 1.266 2.8 2.8 0 0 1-3.949-3.9.8.8 0 0 1 1.12-.157m2.28-1.612q.312.924.618 1.853h.896c.598 0 1.195.33 1.47.97q.5 1.155.993 2.315a.8.8 0 0 1-.42 1.05.81.81 0 0 1-1.05-.42q-.5-1.156-.993-2.315h-.896a1.6 1.6 0 0 1-1.472-.974l-.663-1.973a.8.8 0 0 1 1.518-.506M4.393 5.023c.5 0 .922.422.922.921a.92.92 0 0 1-.922.921.91.91 0 0 1-.92-.92c0-.5.402-.922.92-.922m1.53-2.88c0-.32.285-.52.554-.52.218 0 .445.132.504.402l.465 2.142.525-2.159c.061-.253.302-.386.52-.386s.459.128.52.386l.513 2.167.46-2.15a.49.49 0 0 1 .504-.403c.285 0 .554.202.554.52q.002.075-.017.152l-.973 3.742c-.07.268-.302.386-.52.386a.52.52 0 0 1-.52-.386L8.472 4.14l-.537 1.896a.52.52 0 0 1-.52.386.53.53 0 0 1-.52-.402l-.957-3.726a.6.6 0 0 1-.017-.151m5.28 1.871c0-2.192 1.296-2.425 1.86-2.425.333 0 .681.067.997.216.232.1.332.283.332.465 0 .283-.216.565-.515.565a.5.5 0 0 1-.216-.05 1.3 1.3 0 0 0-.548-.133c-.232 0-.847 0-.847 1.362 0 1.312.548 1.312.847 1.312.2-.016.399-.066.582-.132.066-.017.132-.034.199-.034.299 0 .515.283.515.565 0 .2-.1.382-.349.482-.316.1-.648.166-.98.182-.698 0-1.877-.315-1.877-2.375" clip-rule="evenodd"/></g><defs><clipPath id="a"><path fill="#fff" d="M0 0h16v16H0z"/></clipPath></defs></svg>
